X: 96
T:Gan Ainm
M:4/4
L:1/8
R:Reel
D:Session Tape - Belfast 1984 (with Andy Dickson and Ciaran Carson)
Z:Bernie Stocks
K:G
A3G EGG2 | AGAB dedB | ABAG EGG2 | gedB BAA2 :: agef g4 |\
ABAG EGG2 |1 agef g3e | dBgB BAA2 :|2 AGAB d3e | gedB BAA2 ||
<end>
<start>
